src/main/resources/icons/JavaUltimateIcons/icons/javaee/persistenceMappedSuperclass.svg

<svg xmlns="http://www.w3.org/2000/svg" width="16" height="16" viewBox="0 0 16 16">
  <g fill="none" fill-rule="evenodd">
    <path fill="#9AA7B0" fill-opacity=".8" d="M8.7724959,8.18106229 C8.5188289,8.18872662 8.26108366,8.1926606 8,8.1926606 C4.13400675,8.1926606 1,7.33008993 1,6.26605509 C1,6.12142703 1,5.58926214 1,4.6695604 C2.48465379,5.55302528 5.06515236,6.13761469 8,6.13761469 C10.9348476,6.13761469 13.5153462,5.55302528 15,4.6695604 C15,5.56639749 15,6.09856238 15,6.26605509 C15,6.66336228 14.5630406,7.0325803 13.8141732,7.33929134 C13.2517605,7.12021422 12.639919,7 12,7 C10.7698458,7 9.6434511,7.44424741 8.7724959,8.18106229 Z M7.02327762,11.5144128 C3.61964242,11.390008 1,10.6248392 1,9.6994857 C1,9.55313981 1,8.98964786 1,8.00900983 C2.43106035,8.86058314 4.88027723,9.43446931 7.68359128,9.47479225 C7.32636596,10.0840914 7.09446453,10.7757618 7.02327762,11.5144128 Z M7.99963381,15 C4.13380885,14.9999455 1,14.1373957 1,13.0733945 L1,11.3484593 C2.32442279,12.1365763 4.52091678,12.6868489 7.06308547,12.7964452 C7.19396907,13.6141105 7.52310044,14.3655773 7.99963381,15 Z M8,4.85321102 C4.13400675,4.85321102 1,3.99064035 1,2.92660551 C1,1.86257067 4.13400675,1 8,1 C11.8659932,1 15,1.86257067 15,2.92660551 C15,3.99064035 11.8659932,4.85321102 8,4.85321102 Z"/>
    <circle cx="12" cy="12" r="4" fill="#F4AF3D" fill-opacity=".7"/>
  </g>
</svg>

<svg xmlns="http://www.w3.org/2000/svg" width="16" height="16" viewBox="0 0 16 16"><rect id="frame" width="16" height="16" fill="none"/><g fill="none" fill-rule="evenodd"><path fill="#9AA7B0" fill-opacity=".8" d="M8.772 8.181A25.59 25.59 0 0 1 8 8.193c-3.866 0-7-.863-7-1.927V4.67c1.485.883 4.065 1.468 7 1.468 2.935 0 5.515-.585 7-1.468v1.596c0 .397-.437.767-1.186 1.073A4.988 4.988 0 0 0 12 7a4.98 4.98 0 0 0-3.228 1.181zm-1.749 3.333C3.62 11.39 1 10.624 1 9.7V8.01c1.431.852 3.88 1.425 6.684 1.466a4.969 4.969 0 0 0-.66 2.04zM8 15c-3.866 0-7-.863-7-1.927v-1.725c1.324.789 3.52 1.339 6.063 1.448.131.818.46 1.57.937 2.204zM8 4.853c-3.866 0-7-.862-7-1.926S4.134 1 8 1s7 .863 7 1.927-3.134 1.926-7 1.926z"/><circle cx="12" cy="12" r="4" fill="#F4AF3D" fill-opacity=".7"/></g></svg>
